!!!COM1:	de Lanoy, Colinet
!!!CDT1:	?-<1497/06/06
!!!COM2:	Martini, Johannes
!!!CDT2:	~1440///-~1497//
!!!ONB:	composed by Colinet de Lanoy, with bassus by Martini
!!!OTL:	Cela sans plus
!!!AGN:	Song; Chanson
!!!SCT:	Mar3002
!!!SCA:	Mar3002
!!!voices:	4
**kern	**kern	**kern	**kern
*staff4	*staff3	*staff2	*staff1
*Ivox	*Ivox	*Ivox	*Ivox
*I"Bassus	*I"Tenor	*I"Altus	*I"Cantus
*I'B	*I'T	*I'A	*I'Cn
*clefF4	*clefGv2	*clefGv2	*clefG2
*k[b-]	*k[b-]	*k[b-]	*k[b-]
*M2/1	*M2/1	*M2/1	*M2/1
*met(C|)	*met(C|)	*met(C|)	*met(C|)
=1-	=1-	=1-	=1-
1.G	0r	0g	0r
[2B-\	.	.	.
=2	=2	=2	=2
4B-\]	0r	1f	0r
4A\	.	.	.
1d	.	.	.
.	.	1e	.
2c\	.	.	.
=3	=3	=3	=3
2d\	0r	0d	0dd
1B-	.	.	.
4A\	.	.	.
4G\	.	.	.
=4	=4	=4	=4
2A\	0r	0r	1cc
2F\	.	.	.
1G	.	.	1b-
=5	=5	=5	=5
1D	0d	0f	0a
2r	.	.	.
2D\	.	.	.
=6	=6	=6	=6
2E\	1c	1g	0r
2F\	.	.	.
1G	1B-	1g	.
=7	=7	=7	=7
2.F\	0A	2.a\	0cc
4G\	.	4g\	.
1A	.	2e\	.
.	.	2f\	.
=8	=8	=8	=8
0G	0r	2g\	1.b-
.	.	2d\	.
.	.	4e\	.
.	.	4d\	.
.	.	4c\	4a/
.	.	4B-\	4g/
=9	=9	=9	=9
1F	0c	2A/	1a
.	.	1F	.
1r	.	.	1a
.	.	4E/	.
.	.	4F/	.
=10	=10	=10	=10
1.G	1.B-	2G/	2g/
.	.	2.g\	4f/
.	.	.	4e/
.	.	.	2d/
.	.	4f\	.
2B-\	4A/	4e\	[2g/
.	4G/	4d\	.
=11	=11	=11	=11
4A\	2.A/	2c\	2g/]
4G\	.	.	.
4F\	.	1d	2f#i/
4E\	4G/	.	.
2D\	1A	.	2.f#i/
2A\	.	2c\	.
.	.	.	4e/
=12	=12	=12	=12
2B-\	[0G	1.d	0g
1G	.	.	.
[2C/	.	[2e-i\	.
=13	=13	=13	=13
4C/]	0G]	2e-\]	0r
4D\	.	.	.
4E\	.	4d\	.
4F\	.	4c\	.
1G	.	1B-	.
=14	=14	=14	=14
2A\	0r	1A	[0cc
1F	.	.	.
.	.	2r	.
4E\	.	[2a\	.
4D\	.	.	.
=15	=15	=15	=15
1E	0r	2a\]	1cc]
.	.	2g\	.
1D	.	1f	1dd
=16	=16	=16	=16
0C	[0c	2.e\	[0ee
.	.	4f\	.
.	.	2g\	.
.	.	[2a\	.
=17	=17	=17	=17
0r	1c]	2a\]	1ee]
.	.	2g\	.
.	1d	2f\	1ff
.	.	4e\	.
.	.	4d\	.
=18	=18	=18	=18
0C	[0e	0c	1.gg
.	.	.	2ff\
=19	=19	=19	=19
1c	1e]	0r	2ee\
.	.	.	4dd\
.	.	.	4cc\
2B-\	1f	.	1dd
2d\	.	.	.
=20	=20	=20	=20
2c\	1.g	1G	2ee\
2B-\	.	.	2.dd\
1G	.	1B-	.
.	.	.	4cc\
.	2f\	.	4b-\
.	.	.	4a/
=21	=21	=21	=21
1C	2e\	1c	2g/
.	4d\	.	1cc
.	4c\	.	.
1r	1d	1G	.
.	.	.	2bni\
=22	=22	=22	=22
[0C	[0c	0r	0cc
=23	=23	=23	=23
0C]	0c_	1.g	0r
.	.	2f\	.
=24	=24	=24	=24
1r	0c]	1.e	1.gg
1C	.	.	.
.	.	2d\	2ff\
=25	=25	=25	=25
1c	0r	1c	1ee
1B-	.	2r	1dd
.	.	2d\	.
=26	=26	=26	=26
2.A\	0r	2e\	0cc
.	.	2f\	.
4B-\	.	.	.
2c\	.	2e\	.
[2F\	.	[2a\	.
=27	=27	=27	=27
2F\]	0r	2a\]	1cc
2G\	.	4g\	.
.	.	4f\	.
1A	.	1e	1cc
=28	=28	=28	=28
1D	0r	2d\	1.dd
.	.	1f	.
2BB-/	.	.	.
2C/	.	2e\	2cc\
=29	=29	=29	=29
1G	0r	2d\	2b-\
.	.	1g	4a/
.	.	.	4g/
1D	.	.	1a
.	.	2f\	.
=30	=30	=30	=30
2E\	1.g	2e\	1g
2F\	.	4d\	.
.	.	4c\	.
2G\	.	2.Bni\	2r
2D\	2f\	.	[2dd\
.	.	4A/	.
=31	=31	=31	=31
1A	1e	1c	4dd\]
.	.	.	4cc\
.	.	.	1cc
1r	1d	1G	.
.	.	.	2bni\
=32	=32	=32	=32
1.F	0c	2r	0cc
.	.	2.A/	.
.	.	4B-\	.
4E\	.	4c\	.
4D\	.	4d\	.
=33	=33	=33	=33
2.C/	1c	2e\	0r
.	.	2f\	.
4D\	.	.	.
2E\	1c	2g\	.
[2F\	.	[2a\	.
=34	=34	=34	=34
4F\]	1.d	4a\]	0r
4E\	.	4g\	.
4D\	.	1f	.
4C/	.	.	.
2BB-/	.	.	.
2C/	2c\	2e\	.
=35	=35	=35	=35
2D\	2B-\	2d\	0r
2E-i\	4A/	1g	.
.	4G/	.	.
1D	1A	.	.
.	.	2f#i\	.
=36	=36	=36	=36
1E-i	1G	1g	0r
2D\	2r	1f	.
2BB-/	[2d\	.	.
=37	=37	=37	=37
1C	2d\]	1e	0r
.	1c	.	.
1G	.	1d	.
.	2Bni\	.	.
=38	=38	=38	=38
0C	0c	2e\	0cc
.	.	1g	.
.	.	4f\	.
.	.	4e\	.
=39	=39	=39	=39
0G	0r	2.d\	1dd
.	.	8c\L	.
.	.	8B-\J	.
.	.	4c\	1b-
.	.	4B-\	.
.	.	4A/	.
.	.	4G/	.
=40	=40	=40	=40
2.A\	0c	1F	0a
4G\	.	.	.
2F\	.	1r	.
2E\	.	.	.
=41	=41	=41	=41
1D	1d	1f	0r
2E\	1B-	1g	.
2G\	.	.	.
=42	=42	=42	=42
2.F\	0A	1a	0cc
4G\	.	.	.
1A	.	2f\	.
.	.	[2e\	.
=43	=43	=43	=43
1G	0r	4e\]	1.b-
.	.	4f\	.
.	.	2.g\	.
2r	.	.	.
.	.	4f\	.
2G\	.	4d\	4a/
.	.	4e\	4g/
=44	=44	=44	=44
2F\	0c	2f\	2a/
1C	.	1e	1g
2AA/	.	4d\	4f/
.	.	4c\	4e/
=45	=45	=45	=45
1BB-	1B-	2f\	1d
.	.	2.g\	.
1E-i	1G	.	[1g
.	.	4f\	.
.	.	4e\	.
.	.	4d\	.
=46	=46	=46	=46
2r	0A	0c	2g/]
2.F\	.	.	4f#i/
.	.	.	4e/
.	.	.	1f#i
4G\	.	.	.
2A\	.	.	.
=47	=47	=47	=47
0B-l	0Gl	0dl	0gl
==	==	==	==
*-	*-	*-	*-
!!!RDF**kern: l=long note in original notation
!!!RDF**kern: i=editorial accidental
!!!ENC:	Chris Gage 10-30-2014
!!!END:	2015/03/05/
!!!EED:	Jesse Rodin
!!!EEV:	2015/03/05/
!!!ONB:	Translated from MusicXML and edited on 2015/03/05/ by Craig Sapp
!!muse2ps: C^@{COM1}\nBassus by @{COM2}^i2I150v85,85,85,150Q16
